X:1
T:The Bangor Regatta
T:The Old Horned Sheep
R:Jig
Q:180
K:Bb
M:6/8
L:1/16
|:b4B2 B2A2B2|G2B2B2 F2B2B2|b2B2B2 B2A2B2|G2c2B2 A2G2F2|
b4B2 B2A2B2|G2B2B2 F2B2B2|G2B2B2 A2B2c2|d2B2B2 B6:|
|:B2d2f2 f2d2f2|g2a2b2 f2d2c2|B2d2f2 f2d2f2|e2c2c2 c4d2|
B2d2f2 f2d2f2|g2a2b2 f2g2a2|b2a2g2 f2e2d2|c2d2c2 B6:|
